assets/flags-color/Gm.svg

<svg xmlns="http://www.w3.org/2000/svg" viewBox="0 0 512 512"><path fill="#73af00" d="M0 336.53h512V512H0z"/><path fill="#ff4b55" d="M0 0h512v175.47H0z"/><path fill="#41479b" d="M0 175.47h512v161.05H0z"/><g fill="#f5f5f5"><path d="M0 175.47h512v26.842H0zM0 309.68h512v26.842H0z"/></g></svg>

<svg xmlns="http://www.w3.org/2000/svg" x="0" y="0" enable-background="new 0 0 512 512" version="1.1" viewBox="0 0 512 512" xml:space="preserve"><path fill="#73AF00" d="M0 336.53H512V512H0z"/><path fill="#FF4B55" d="M0 0H512V175.47H0z"/><path fill="#41479B" d="M0 175.47H512V336.52H0z"/><g fill="#F5F5F5"><path d="M0 175.47H512V202.312H0z"/><path d="M0 309.68H512V336.522H0z"/></g></svg>
